X: 20187
T: Jockey At The Fair, The
R: jig
M: 6/8
K: Gmajor
D|:G2A B2c|d2g d2c|BdB GFG|cBc A2c|
d^cd efg|a2 f d2g|fed AB^c|1 d3 d3:|2 d3 dfg||
|:afd afd|c2c B2d|dgd dgd|c2c B2d|
e2f gfe|d2c B2 d|edc BAG|B2G E2F|
GGG GBd|e2f g2e|dBG GAB|E2F G2A|
Bg2 B2A|1 G3 Gfg:|2 G3 G2D||

